!!!OTL@@DE: Sommer-Abendlied
!!!COM: Becker, Wilhelm Gottlieb
!!!ODT: 1798
!!!OMD: Langsam
!!!LYR: Ludwig, Fritz von
!!!LDT: 1800
!!!OCL: Erk, Ludwig
!!!GCO: Deutscher Liederschatz, Band 1
**kern	**kern	**kern
*staff3	*staff2	*staff1
*Ipiano	*Ipiano	*Ivox
*clefF4	*clefG2	*clefG2
*k[b-e-]	*k[b-e-]	*k[b-e-]
*B-:	*B-:	*B-:
*met(C)	*met(C)	*met(C)
*M4/4	*M4/4	*M4/4
*MM60	*MM60	*MM60
4r	4d/ 4f/	4f/
=1	=1	=1
*^	*	*
(8BB-/L	2BB-\	4d/ 4f/	4f/
8F/	.	.	.
8B-/	.	8B-/ 8d/L	8d/
8F/J)	.	8c/ 8e-/J	8e-/
*	*	*^	*
(8BB-/L	2BB-\	(8f/L	4d\	(8f/L
8F/	.	8dd/J)	.	8dd/J)
8A/	.	8cc/L	8e-\L	8cc\
8B-/J)	.	8b-/J	8d\J	8b-\
*v	*v	*	*	*
*	*v	*v	*
=2	=2	=2
4FF/	(8d/ 8b-/L	(8b-/L
.	8c/) 8a/J	8a/J)
(8F\L	4c/ 4a/	4a/
8G\J	.	.
8A\L	4r	4r
*	*^	*
8F#\	.	.	.
8G\	8b-/L	4B-\	(8b-/L
8E-\J)	8g/J	.	8g/J)
*	*v	*v	*
=3	=3	=3
*^	*	*
8FF/L	4FF\	(8e-/ 8g/L	(8g/L
8Fn/	.	8d/) 8f/	8f/J)
*v	*v	*	*
8B-/	8B-/ 8d/	8d/
8F/J	8d/ 8f/J	8f/
*^	*	*
8FF/L	4FF\	(8d/ 8f/L	(8f/L
8F/	.	8c/) 8e-/	8e-/J)
*v	*v	*	*
8A/	8A/ 8c/	8c/
8F/J	8c/ 8e-/J	8e-/
=4	=4	=4
2BB-/	(8c/ 8e-/L	(4e-/
.	8F/	.
.	8B-/ 8d/	4d/)
.	8F/J	.
2r	8B-/ 8d/L	4r
.	8F/)	.
.	(8d/ 8f/	4f/
.	8B-/J)	.
=5	=5	=5
*^	*^	*
(8BB-/L	2BB-\	(4dd/	4.d\	4dd\
8F/	.	.	.	.
8B-/J)	.	8b-/L)	.	8b-\
8r	.	8f/J	8d\	8f/
(8C/L	2C\	(4ee-/	2e-\	4ee-\
8F/	.	.	.	.
8A/	.	8cc/L)	.	8cc\
8c/J)	.	8a/J	.	8a/
=6	=6	=6	=6	=6
(8D/L	2D\	(8ff/L	2f\	(8ff\L
8F/	.	8dd/J	.	&(8dd\J&))
8B-/	.	4b-/)	.	4b-\
[8d/J)	.	.	.	.
*v	*v	*	*	*
4d/]	4r	(8f\L	4r
*^	*	*	*
.	.	.	8b-\	.
4r	8BB-\L	8dd/L	8d\	(8dd\L
.	8D\J	8b-/J	8f\J)	8b-\J)
*v	*v	*	*	*
=7	=7	=7	=7
4E-\	4g/	4e-\	4g/
8C\L	8ee-/L	4e-\ 4g\	8ee-\
8E-\J	8cc/J	.	8cc\
4F\	4b-/	4d\ 4f\	4b-\
*	*	*^	*
4F\	8a/L	4f\	8c\L	8a/
.	8cc/J	.	8e-\J	8cc\
*	*	*v	*v	*
*	*v	*v	*
=8	=8	=8
2BB-/	4e-/ [4f/ (4cc/	(4cc\
.	&(4d/&) 4f/] 4b-/)	4b-\)
4r;	4r;	4r;
==	==	==
*-	*-	*-
!!!ENC: Craig Stuart Sapp
!!!END: 2004/06/07/
!!!EFL: 124/651
